dist/svgs/devui-icons/op/hotkey.svg

<?xml version="1.0" encoding="UTF-8"?>
<svg width="16px" height="16px" viewBox="0 0 16 16" version="1.1" xmlns="http://www.w3.org/2000/svg" xmlns:xlink="http://www.w3.org/1999/xlink">
    <title>快捷键</title>
    <desc>Created with Sketch.</desc>
    <g id="快捷键" stroke="none"  stroke-width="1" fill="none" fill-rule="evenodd">
        <path d="M1,2.5 L15,2.5 C15.5522847,2.5 16,2.94795367 16,3.50053253 L16,12.4994675 C16,13.0520463 15.5522847,13.5 15,13.5 L1,13.5 C0.44771525,13.5 6.76353751e-17,13.0520463 0,12.4994675 L0,3.50053253 C-6.76353751e-17,2.94795367 0.44771525,2.5 1,2.5 Z M4.66666667,9.99617347 L4.66666667,11.3302168 L11.3333333,11.3302168 L11.3333333,9.99617347 L4.66666667,9.99617347 Z M2,9.99617347 L2,11.3302168 L3.33333333,11.3302168 L3.33333333,9.99617347 L2,9.99617347 Z M12.6666667,9.99617347 L12.6666667,11.3302168 L14,11.3302168 L14,9.99617347 L12.6666667,9.99617347 Z M2,4.66 L2,5.99404337 L3.33333333,5.99404337 L3.33333333,4.66 L2,4.66 Z M4.66666667,4.66 L4.66666667,5.99404337 L6,5.99404337 L6,4.66 L4.66666667,4.66 Z M7.33333333,4.66 L7.33333333,5.99404337 L8.66666667,5.99404337 L8.66666667,4.66 L7.33333333,4.66 Z M10,4.66 L10,5.99404337 L11.3333333,5.99404337 L11.3333333,4.66 L10,4.66 Z M2,7.32808674 L2,8.66213011 L3.33333333,8.66213011 L3.33333333,7.32808674 L2,7.32808674 Z M4.66666667,7.32808674 L4.66666667,8.66213011 L6,8.66213011 L6,7.32808674 L4.66666667,7.32808674 Z M7.33333333,7.32808674 L7.33333333,8.66213011 L8.66666667,8.66213011 L8.66666667,7.32808674 L7.33333333,7.32808674 Z M10,7.32808674 L10,8.66213011 L14,8.66213011 L14,7.32808674 L10,7.32808674 Z M12.6666667,4.66 L12.6666667,5.99161784 L14,5.99161784 L14,4.66 L12.6666667,4.66 Z" id="形状结合" fill="#293040"></path>
    </g>
</svg>

<svg xmlns="http://www.w3.org/2000/svg" viewBox="0 0 16 16"><path fill-rule="evenodd" d="M1 2.5h14a1 1 0 011 1v9a1 1 0 01-1 1H1a1 1 0 01-1-1v-9a1 1 0 011-1zm3.667 7.496v1.334h6.666V9.996H4.667zM2 9.996v1.334h1.333V9.996H2zm10.667 0v1.334H14V9.996h-1.333zM2 4.66v1.334h1.333V4.66H2zm2.667 0v1.334H6V4.66H4.667zm2.666 0v1.334h1.334V4.66H7.333zm2.667 0v1.334h1.333V4.66H10zM2 7.328v1.334h1.333V7.328H2zm2.667 0v1.334H6V7.328H4.667zm2.666 0v1.334h1.334V7.328H7.333zm2.667 0v1.334h4V7.328h-4zm2.667-2.668v1.332H14V4.66h-1.333z"/></svg>
